icons/a4-portrait-16.svg

<?xml version="1.0" encoding="UTF-8"?><svg id="icons" xmlns="http://www.w3.org/2000/svg" viewBox="0 0 16 16"><defs><style>.cls-1{fill:none;}.cls-1,.cls-2,.cls-3{stroke-width:0px;}.cls-2{opacity:.25;}</style></defs><rect class="cls-1" width="16" height="16"/><path class="cls-3" d="M12.40039,0H3v5h1V1h7v4h4v10H4v-1h-1v2h13V3.59961l-3.59961-3.59961ZM15,4h-3V1h.31049l2.68951,2.68951v.31049ZM13,13h-1v-2h-4.20703l5.20703-5.20703v4.20703h1v1h-1v2ZM10.20703,10h1.79297v-1.79297l-1.79297,1.79297ZM4.5,6h-1L0,13H1l1-2h4l1,2h1l-3.5-7ZM2.5,10l1.49597-2.99194,1.50403,2.99194h-3Z"/><path class="cls-2" d="M11,3h-7V1h7v2Z"/></svg>

<svg xmlns="http://www.w3.org/2000/svg" viewBox="0 0 16 16"><path stroke-width="0" fill="none" d="M0 0h16v16H0z"/><path d="M12.4 0H3v5h1V1h7v4h4v10H4v-1H3v2h13V3.6L12.4 0zM15 4h-3V1h.31L15 3.69V4zm-2 9h-1v-2H7.793L13 5.793V10h1v1h-1v2zm-2.793-3H12V8.207L10.207 10zM4.5 6h-1L0 13h1l1-2h4l1 2h1L4.5 6zm-2 4l1.496-2.992L5.5 10h-3z" stroke-width="0"/><path d="M11 3H4V1h7v2z" opacity=".25" stroke-width="0"/></svg>
